X: 1
T: Patriot's Jig
C: Ralph Page
R: jig
Z: 2012 John Chambers <jc:trillian.mit.edu>
B: Northern Junket, v.11, #2, Oct. 1972
N: __
M: 6/8
L: 1/8
K: F
A/B/ |\
cdc BAG | FG^G A2F | EF^F G2E | FG^G A2A/B/ |\
cdc BAG | FG^G A2F | CEG  BAG | F2F  F2 :|
|: A/B/ |\
c3 c3 | cAB c3  | B3  F2G | BcB A2G |\
c3 c3 | cAB c2F | CEG B2A | GFE F2 :|
